icons/crystal.svg

<svg width="16" height="16" viewBox="0 0 16 16" fill="none" xmlns="http://www.w3.org/2000/svg">
<path d="M14.4928 10.128L9.77866 14.4491C9.7598 14.4664 9.73152 14.4751 9.71266 14.4664L3.27313 12.8817C3.24485 12.8731 3.22599 12.8558 3.22599 12.8384L1.49119 6.93264C1.48176 6.90666 1.49119 6.88935 1.51004 6.87203L6.22419 2.55093C6.24305 2.53361 6.27133 2.52495 6.29019 2.53361L12.7297 4.1183C12.758 4.12696 12.7769 4.14428 12.7769 4.1616L14.5022 10.0674C14.5211 10.0934 14.5117 10.1107 14.4928 10.128ZM8.17585 5.42589L1.84946 6.97594C1.84003 6.97594 1.83061 6.99326 1.84003 7.00192L6.46933 11.2451C6.47876 11.2537 6.49761 11.2537 6.49761 11.2364L8.1947 5.43455C8.20413 5.43455 8.18528 5.41723 8.17585 5.42589Z" fill="#909090"/>
</svg>

<svg xmlns="http://www.w3.org/2000/svg" width="16" height="16" fill="none"><path fill="#909090" d="m14.493 10.128-4.714 4.321c-.02.017-.047.026-.066.017l-6.44-1.584c-.028-.009-.047-.026-.047-.044L1.491 6.933c-.01-.026 0-.044.019-.061l4.714-4.321c.02-.017.047-.026.066-.017l6.44 1.584c.028.009.047.026.047.044l1.725 5.905c.02.026.01.044-.01.061ZM8.176 5.426l-6.327 1.55c-.009 0-.018.017-.009.026l4.63 4.243c.009.009.028.009.028-.009l1.697-5.801c.01 0-.01-.018-.02-.01Z"/></svg>
